X:1
T:Title
%%score { ( 1 4 ) | ( 2 3 ) }
L:1/8
Q:1/4=100
M:4/4
K:Eb
V:1 treble nm="Grand Piano"
V:4 treble 
V:2 bass 
V:3 bass 
V:1
 [GB]2 [Ge]2 [Bd]2 [Ac]2 | [GB]2 [EG]2 [GB]4 | [FA]2 [DF]>[EG] [FA]2 [GB]2 | [Ac]2 [GB]>[FA] G4 | %4
w: Robert~Lowry * * *||||
 B2 e2 d2 c2 | B2 G2 [GB]2 c2 | d4 c3 c | [DFB]8 | [Ad]4 z4 | e4 z4 | A2 c2 [GB]2 [EG]2 | %11
w: |||||||
 [EG]4 [DF]2 [DF]2 | [EG]2 [GB]2 [Ac]2 [Ge]2 | [Ac]2 [GB]2 c2 e2 | B2 G2 [DG]3 [DF] | E8 |] %16
w: |||||
V:2
 [E,B,]2 [E,B,]2 [E,B,]2 [E,E]2 | [E,E]2 [E,B,]2 [E,B,]4 | [B,,B,]2 [B,,B,]>[B,,B,] [B,,B,]4 | %3
 [B,,B,]2 [B,,B,]>[B,,B,] [E,B,E]4 | [E,G,E]2 [E,CE]2 [E,B,E]2 [E,A,E]2 | %5
 [E,G,E]2 [E,B,E]2 z2[K:treble] _G2 | [F,B,F]4[K:bass] [F,EF]3 [F,EF] | B,,8 | %8
 [B,,B,]2 B,,>B,, [B,,B,]2 z2 | [E,B,]2 E,>E, [E,E]3 [E,B,E] | %10
 [A,CE]2 [A,EA]2[K:bass] [E,E]2 [E,B,]2 | [B,,B,]6 [B,,B,]2 | [E,B,]2 [E,_D]2 [E,C]2 [E,B,]2 | %13
 [E,E]2 [E,E]2[K:treble] [A,EA]2 [A,CA]2 | [B,EG]2[K:bass] [B,E]2 [B,,B,]3 [B,,A,] | [E,G,]8 |] %16
V:3
 x8 | x8 | x8 | x8 | x8 | z4 [E,E]4[K:treble] | x4[K:bass] x4 | x8 | x8 | x8 | x4[K:bass] x4 | x8 | %12
 x8 | x4[K:treble] x4 | x2[K:bass] x6 | x8 |] %16
V:4
 x8 | x8 | x8 | x8 | x8 | x8 | x8 | x8 | z2 B,>B, [Ad]3 [Ad] | G2- [B,G-]>[B,G-] [GB]3 G | x8 | %11
 x8 | x8 | x8 | x8 | x8 |] %16

